X: 12082
T: Eternal Father Strong To Save
R: reel
M: 4/4
K: Cmajor
CD|EDEF G^FGB|AG^FA G^FGB|cBdc BAG^F|G2^F2 G2D2|
FGFD EDEF|G2G2 ^F2BB,|GB,^FB, EB,AB,|GB,^FB, EB,EB,|
EB,CE FCEF|^FDE^F GAG^F|G^FGA G=FED|DCB,D C4|

